X:203
T:Eel in the Sink
M:C|
L:1/8
K:G
"Am"e2 AB cdec|"G"dGBG dGBd|"Am"e2 AB cdea|"G"gedB "Am"BA A2|
e2 AB cdec|"G"dGBG dGBd|"Am"e2 AB cdea|"G"gedB "Am"BA A2||
"Am"a2 ea aged|"A"^cdef "G"g2 fg|"Am"a2 ag agab|"G"gedB "Am"BA A2|
a2 ag aged|"A"^cdef "G"g2 fg|"Am"afge "(""D"")"fdef|"G"gedB "Am"BA A2|]
